Origami/64x64/apps/astromenace.svg

<svg width="64" height="64" version="1.1" viewBox="0 0 64 64" xmlns="http://www.w3.org/2000/svg">
 <rect transform="matrix(0,-1,-1,0,0,0)" x="-61" y="-60" width="56" height="56" rx="2.8" ry="2.8" style="opacity:.2"/>
 <rect transform="matrix(0,-1,-1,0,0,0)" x="-60" y="-60" width="56" height="56" rx="2.8" ry="2.8" style="fill:#345784"/>
 <path d="m33.752286 17.001639c-0.14596 0.0048-0.296812 0.0196-0.459374 0.04151-1.828328 0.246429-2.330178 0.694073-3.448046 3.068625-0.753998 1.601614-1.131204 1.797196-2.102734 2.008576-4.541798-3.348135-4.541798 1.762588-5.435938 3.1793-1.225624-1.088194-2.817328-3.441296-4.39129-4.756784-1.407217-1.176124-2.800254-1.8887-3.904805-1.1464-0.875281 0.62108-1.618944 1.95364-1.889453 5.011068-0.369558 4.176908 0.0039 6.528426 2.625001 9.98759 2.963968 3.911594 7.379981 7.824594 14.371873 12.736586 3.02848 2.127586 5.56641 3.86829 5.641016 3.86829 0.419362 0-4.053278-5.879262-6.762108-8.887666-4.04837-4.496074-4.795408-6.094864-4.882894-8.11401-0.079-1.824232 0.692758-3.032648 1.727424-3.032648 0.375966 0 2.07758 1.292388 3.953908 3.446046 1.563646 1.709818 2.591736 4.11436 3.84033 5.87435 2.644068 3.34093 5.710366 3.767036 6.849608 0.951856 1.10359-2.739312 0.383286-7.550168-2.139548-10.902338-0.283838-1.225946 0.252704-1.412468 1.492968-1.411178 1.56878 0.0016 4.548128 1.079384 6.338282 2.648348 2.212228 1.938886 2.58502 1.929762 5.047656 6.872272 1.453668 2.917512 2.895478 5.638578 3.204688 6.045936 0.550672 0.725492 0.562244 0.721478 0.571484-0.18538-0.464692-7.551536-3.05472-14.738738-8.654298-19.896634-0.947198-0.837844-3.726616-2.881574-6.176952-4.540682-3.570078-2.417288-4.395106-2.900768-5.416798-2.866633z" style="opacity:.2"/>
 <path d="m33.752286 16.001639c-0.14596 0.0048-0.296812 0.0196-0.459374 0.04151-1.828328 0.246429-2.330178 0.694073-3.448046 3.068625-0.753998 1.601614-1.131204 1.797196-2.102734 2.008576-4.541798-3.348135-4.541798 1.762588-5.435938 3.1793-1.225624-1.088194-2.817328-3.441296-4.39129-4.756783-1.407217-1.176126-2.800254-1.888701-3.904805-1.146402-0.875281 0.621081-1.618944 1.953641-1.889453 5.011069-0.369558 4.176908 0.0039 6.528426 2.625001 9.98759 2.963968 3.911594 7.379981 7.824594 14.371873 12.736586 3.02848 2.127586 5.56641 3.86829 5.641016 3.86829 0.419362 0-4.053278-5.879262-6.762108-8.887666-4.04837-4.496074-4.795408-6.094864-4.882894-8.11401-0.079-1.824232 0.692758-3.032648 1.727424-3.032648 0.375966 0 2.07758 1.292388 3.953908 3.446046 1.563646 1.709818 2.591736 4.11436 3.84033 5.87435 2.644068 3.34093 5.710366 3.767036 6.849608 0.951856 1.10359-2.739312 0.383286-7.550168-2.139548-10.902338-0.283838-1.225946 0.252704-1.412468 1.492968-1.411178 1.56878 0.0016 4.548128 1.079384 6.338282 2.648348 2.212228 1.938886 2.58502 1.929762 5.047656 6.872272 1.453668 2.917512 2.895478 5.638578 3.204688 6.045936 0.550672 0.725492 0.562244 0.721478 0.571484-0.18538-0.464692-7.551536-3.05472-14.738738-8.654298-19.896634-0.947198-0.837844-3.726616-2.881574-6.176952-4.540682-3.570078-2.417288-4.395106-2.900768-5.416798-2.866633z" style="fill:#8d8069"/>
 <ellipse transform="matrix(.41803286 -.90843191 .66935843 .74293963 0 0)" cx="2.803" cy="50.538" rx="2.838" ry="4.117" style="opacity:.2"/>
 <ellipse transform="matrix(.41803286 -.90843191 .66935843 .74293963 0 0)" cx="3.532" cy="50.083" rx="2.838" ry="4.117" style="fill:#ffffff"/>
 <path d="M 6.8007812 4 C 5.2495812 4 4 5.2495812 4 6.8007812 L 4 7.8007812 C 4 6.2495813 5.2495812 5 6.8007812 5 L 57.199219 5 C 58.750419 5 60 6.2495812 60 7.8007812 L 60 6.8007812 C 60 5.2495813 58.750419 4 57.199219 4 L 6.8007812 4 z" style="fill:#ffffff;opacity:.1"/>
 <path d="m33.751953 16.001953c-0.14596 0.0048-0.296422 0.019106-0.458984 0.041016-1.828328 0.246429-2.329398 0.693807-3.447266 3.068359-0.753998 1.601614-1.131986 1.798386-2.103515 2.009766-4.541799-3.348135-4.541407 1.761022-5.435547 3.177734-1.225624-1.088194-2.818616-3.440372-4.392579-4.755859-1.407216-1.176126-2.799745-1.888784-3.904296-1.146485-0.875281 0.621081-1.618163 1.954291-1.888672 5.011719-0.096881 1.094991-0.137823 2.060095-0.105469 2.957031 0.012856-0.614492 0.043163-1.252823 0.105469-1.957031 0.270509-3.057428 1.013391-4.390638 1.888672-5.011719 1.104551-0.742299 2.49708-0.029641 3.904296 1.146485 1.573963 1.315487 3.166955 3.667665 4.392579 4.755859 0.89414-1.416712 0.893748-6.525869 5.435547-3.177734 0.971529-0.21138 1.349517-0.408152 2.103515-2.009766 1.117868-2.374552 1.618938-2.82193 3.447266-3.068359 0.162562-0.02191 0.313024-0.036216 0.458984-0.041016 1.021692-0.034135 1.847891 0.4499 5.417969 2.867188 2.450336 1.659108 5.228583 3.701218 6.175781 4.539062 5.491989 5.058793 8.084908 12.070783 8.621094 19.462891 0.020774-0.111245 0.030259-0.277493 0.033203-0.566406-0.464692-7.551536-3.054719-14.738589-8.654297-19.896485-0.947198-0.837844-3.725445-2.879954-6.175781-4.539062-3.570078-2.417288-4.396277-2.901323-5.417969-2.867188zm3.609375 13.357422c-0.113662 0.212141-0.120636 0.523002-0.015625 0.976563 1.67847 2.230236 2.54075 5.096172 2.617188 7.578124 0.162897-2.66893-0.705184-6.021918-2.601563-8.554687zm-14.224609 3.888672c-0.022638 0.237229-0.034916 0.484954-0.023438 0.75 0.087486 2.019146 0.834443 3.61916 4.882813 8.115234 1.828032 2.030197 4.360985 5.258985 5.75 7.214844 0.401063 0.268875 0.989681 0.671875 1.011718 0.671875 0.419362 0-4.052888-5.878315-6.761718-8.886719-3.878331-4.30723-4.718021-5.959118-4.859375-7.865234z" style="fill:#ffffff;opacity:.1"/>
</svg>

<svg xmlns="http://www.w3.org/2000/svg" width="64" height="64" version="1.1" viewBox="0 0 64 64">
 <rect style="opacity:0.2" width="56" height="56" x="-61" y="-60" rx="2.8" ry="2.8" transform="matrix(0,-1,-1,0,0,0)"/>
 <rect style="fill:#345784" width="56" height="56" x="-60" y="-60" rx="2.8" ry="2.8" transform="matrix(0,-1,-1,0,0,0)"/>
 <path style="opacity:0.2" d="m 33.752286,17.001639 c -0.14596,0.0048 -0.296812,0.0196 -0.459374,0.04151 -1.828328,0.246429 -2.330178,0.694073 -3.448046,3.068625 -0.753998,1.601614 -1.131204,1.797196 -2.102734,2.008576 -4.541798,-3.348135 -4.541798,1.762588 -5.435938,3.1793 -1.225624,-1.088194 -2.817328,-3.441296 -4.39129,-4.756784 -1.407217,-1.176124 -2.800254,-1.8887 -3.904805,-1.1464 -0.875281,0.62108 -1.618944,1.95364 -1.889453,5.011068 -0.369558,4.176908 0.0039,6.528426 2.625001,9.98759 2.963968,3.911594 7.379981,7.824594 14.371873,12.736586 C 32.146,49.259296 34.68393,51 34.758536,51 c 0.419362,0 -4.053278,-5.879262 -6.762108,-8.887666 -4.04837,-4.496074 -4.795408,-6.094864 -4.882894,-8.11401 -0.079,-1.824232 0.692758,-3.032648 1.727424,-3.032648 0.375966,0 2.07758,1.292388 3.953908,3.446046 1.563646,1.709818 2.591736,4.11436 3.84033,5.87435 2.644068,3.34093 5.710366,3.767036 6.849608,0.951856 1.10359,-2.739312 0.383286,-7.550168 -2.139548,-10.902338 -0.283838,-1.225946 0.252704,-1.412468 1.492968,-1.411178 1.56878,0.0016 4.548128,1.079384 6.338282,2.648348 2.212228,1.938886 2.58502,1.929762 5.047656,6.872272 1.453668,2.917512 2.895478,5.638578 3.204688,6.045936 0.550672,0.725492 0.562244,0.721478 0.571484,-0.18538 C 53.535642,36.754052 50.945614,29.56685 45.346036,24.408954 44.398838,23.57111 41.61942,21.52738 39.169084,19.868272 35.599006,17.450984 34.773978,16.967504 33.752286,17.001639 Z"/>
 <path style="fill:#8d8069" d="m 33.752286,16.001639 c -0.14596,0.0048 -0.296812,0.0196 -0.459374,0.04151 -1.828328,0.246429 -2.330178,0.694073 -3.448046,3.068625 -0.753998,1.601614 -1.131204,1.797196 -2.102734,2.008576 -4.541798,-3.348135 -4.541798,1.762588 -5.435938,3.1793 -1.225624,-1.088194 -2.817328,-3.441296 -4.39129,-4.756783 -1.407217,-1.176126 -2.800254,-1.888701 -3.904805,-1.146402 -0.875281,0.621081 -1.618944,1.953641 -1.889453,5.011069 -0.369558,4.176908 0.0039,6.528426 2.625001,9.98759 2.963968,3.911594 7.379981,7.824594 14.371873,12.736586 C 32.146,48.259296 34.68393,50 34.758536,50 c 0.419362,0 -4.053278,-5.879262 -6.762108,-8.887666 -4.04837,-4.496074 -4.795408,-6.094864 -4.882894,-8.11401 -0.079,-1.824232 0.692758,-3.032648 1.727424,-3.032648 0.375966,0 2.07758,1.292388 3.953908,3.446046 1.563646,1.709818 2.591736,4.11436 3.84033,5.87435 2.644068,3.34093 5.710366,3.767036 6.849608,0.951856 1.10359,-2.739312 0.383286,-7.550168 -2.139548,-10.902338 -0.283838,-1.225946 0.252704,-1.412468 1.492968,-1.411178 1.56878,0.0016 4.548128,1.079384 6.338282,2.648348 2.212228,1.938886 2.58502,1.929762 5.047656,6.872272 1.453668,2.917512 2.895478,5.638578 3.204688,6.045936 0.550672,0.725492 0.562244,0.721478 0.571484,-0.18538 C 53.535642,35.754052 50.945614,28.56685 45.346036,23.408954 44.398838,22.57111 41.61942,20.52738 39.169084,18.868272 35.599006,16.450984 34.773978,15.967504 33.752286,16.001639 Z"/>
 <ellipse style="opacity:0.2" cx="2.803" cy="50.538" rx="2.838" ry="4.117" transform="matrix(0.41803286,-0.90843191,0.66935843,0.74293963,0,0)"/>
 <ellipse style="fill:#ffffff" cx="3.532" cy="50.083" rx="2.838" ry="4.117" transform="matrix(0.41803286,-0.90843191,0.66935843,0.74293963,0,0)"/>
 <path style="opacity:0.1;fill:#ffffff" d="M 6.8007812 4 C 5.2495812 4 4 5.2495812 4 6.8007812 L 4 7.8007812 C 4 6.2495813 5.2495812 5 6.8007812 5 L 57.199219 5 C 58.750419 5 60 6.2495812 60 7.8007812 L 60 6.8007812 C 60 5.2495813 58.750419 4 57.199219 4 L 6.8007812 4 z"/>
 <path style="fill:#ffffff;opacity:0.1" d="M 33.751953 16.001953 C 33.605993 16.006753 33.455531 16.021059 33.292969 16.042969 C 31.464641 16.289398 30.963571 16.736776 29.845703 19.111328 C 29.091705 20.712942 28.713717 20.909714 27.742188 21.121094 C 23.200389 17.772959 23.200781 22.882116 22.306641 24.298828 C 21.081017 23.210634 19.488025 20.858456 17.914062 19.542969 C 16.506846 18.366843 15.114317 17.654185 14.009766 18.396484 C 13.134485 19.017565 12.391603 20.350775 12.121094 23.408203 C 12.024213 24.503194 11.983271 25.468298 12.015625 26.365234 C 12.028481 25.750742 12.058788 25.112411 12.121094 24.408203 C 12.391603 21.350775 13.134485 20.017565 14.009766 19.396484 C 15.114317 18.654185 16.506846 19.366843 17.914062 20.542969 C 19.488025 21.858456 21.081017 24.210634 22.306641 25.298828 C 23.200781 23.882116 23.200389 18.772959 27.742188 22.121094 C 28.713717 21.909714 29.091705 21.712942 29.845703 20.111328 C 30.963571 17.736776 31.464641 17.289398 33.292969 17.042969 C 33.455531 17.021059 33.605993 17.006753 33.751953 17.001953 C 34.773645 16.967818 35.599844 17.451853 39.169922 19.869141 C 41.620258 21.528249 44.398505 23.570359 45.345703 24.408203 C 50.837692 29.466996 53.430611 36.478986 53.966797 43.871094 C 53.987571 43.759849 53.997056 43.593601 54 43.304688 C 53.535308 35.753152 50.945281 28.566099 45.345703 23.408203 C 44.398505 22.570359 41.620258 20.528249 39.169922 18.869141 C 35.599844 16.451853 34.773645 15.967818 33.751953 16.001953 z M 37.361328 29.359375 C 37.247666 29.571516 37.240692 29.882377 37.345703 30.335938 C 39.024173 32.566174 39.886453 35.43211 39.962891 37.914062 C 40.125788 35.245132 39.257707 31.892144 37.361328 29.359375 z M 23.136719 33.248047 C 23.114081 33.485276 23.101803 33.733001 23.113281 33.998047 C 23.200767 36.017193 23.947724 37.617207 27.996094 42.113281 C 29.824126 44.143478 32.357079 47.372266 33.746094 49.328125 C 34.147157 49.597 34.735775 50 34.757812 50 C 35.177174 50 30.704924 44.121685 27.996094 41.113281 C 24.117763 36.806051 23.278073 35.154163 23.136719 33.248047 z"/>
</svg>
